X:54
T:A Hero Never Dies
T:Cha bh\`as thig air Laoch ach cadal
R:Slow Air
S:Simon Fraser Collection
N:No.185
O:Scottish
M:9/8
L:1/8
Q:3/8=70
K:D Minor
A,|D2E (F>AG/F/) E<CE|D2E (F>EF) E2d|c>BA (G<A)F E<CE|
D>EF (EA)[A,^C] D2:|
|:(A/=B/4^c/4)|d<Ad f>ed eA=B|c>d(e/f/) gec c2 (f/e/)|d<Ad f>ed e<Ac|
A>GF GFE D2 (A/=B/4^c/4)|d<Ad f>ed eA=B|c>d(e/f/) gec c2 (a/4g/4f/4e/4
)|
FFF (G>AF) E<CE|D>EF (EA)[A,^C] D2:|

